X: 1
T: Sno P\aa
C: Erik Gustavsson
S: Bruce Sagan
M: C|
L: 1/8
K: G
|: "G"B,2 DB, G,B,DB, | "Am"C2EC A,CEG \
| "D"F2AF DFAF |1 "G"GBAG FEDC :|2 "G"G2 {^c}d2 "fine"{f}g2 z2 :| [K:D]
|: "B7"B2B^d fBdf | "Em"e^def g2e2 \
| "A"A2AB cABc | "D"dcde f2d2 |
| "B7"B2B^d fBdf | "Em"e^def gfe=d \
| "A"cdcB Acfe |1 "D"d2dc d2c2 :|2 "D"d2dc "D7"d2 "d.C."z2 |]

